icons/blaze-line.svg

<svg viewBox="0 0 24 24" fill="currentColor" xmlns="http://www.w3.org/2000/svg"><path d="M19 9C19.6667 10.0606 20 11.3939 20 13C20 16 16.5 17 15 22C14.3333 21.4254 14 20.5921 14 19.5C14 16.0181 19 14.2101 19 9ZM14.5 5C15.1667 6.23841 15.5 7.57175 15.5 9C15.5 14 9.5 15 11.5 22C9.83333 20.8392 9 19.1726 9 17C9 13.675 14.5 11 14.5 5ZM10 1C10.6667 2.33333 11 3.83333 11 5.5C11 11.5 2 13 8 22C5.5 21.5 3.5 19 3.5 16C3.5 9.5 10 8.5 10 1Z"/></svg>

<svg xmlns="http://www.w3.org/2000/svg" viewBox="0 0 24 24">
    <g>
        <path fill="none" d="M0 0h24v24H0z"/>
        <path d="M19 9c.667 1.06 1 2.394 1 4 0 3-3.5 4-5 9-.667-.575-1-1.408-1-2.5 0-3.482 5-5.29 5-10.5zm-4.5-4a8.31 8.31 0 0 1 1 4c0 5-6 6-4 13C9.833 20.84 9 19.173 9 17c0-3.325 5.5-6 5.5-12zM10 1c.667 1.333 1 2.833 1 4.5 0 6-9 7.5-3 16.5-2.5-.5-4.5-3-4.5-6C3.5 9.5 10 8.5 10 1z"/>
    </g>
</svg>
